icons/tokens/0x9BE89D2a4cd102D8Fecc6BF9dA793be995C22541/logo.svg

<svg width="32" height="32" viewBox="0 0 32 32" fill="none" xmlns="http://www.w3.org/2000/svg">
<path fill-rule="evenodd" clip-rule="evenodd" d="M32 16C32 7.17152 24.8285 0 16 0C7.17152 0 0 7.17152 0 16C0 24.8285 7.17152 32 16 32C24.8285 32 32 24.8285 32 16Z" fill="#F0B90B"/>
<path fill-rule="evenodd" clip-rule="evenodd" d="M16 2.79008C23.289 2.79008 29.2099 8.71104 29.2099 16C29.2099 23.289 23.289 29.2099 16 29.2099C8.71106 29.2099 2.7901 23.289 2.7901 16C2.7901 8.71104 8.71106 2.79008 16 2.79008ZM16 4.03744C22.6007 4.03744 27.9626 9.39936 27.9626 16C27.9626 22.6006 22.6007 27.9626 16 27.9626C9.39938 27.9626 4.03746 22.6006 4.03746 16C4.03746 9.39936 9.39938 4.03744 16 4.03744Z" fill="white"/>
<path fill-rule="evenodd" clip-rule="evenodd" d="M27.9625 16C27.9625 9.39936 22.6006 4.03744 16 4.03744C9.39933 4.03744 4.03741 9.39936 4.03741 16C4.03741 22.6006 9.39933 27.9626 16 27.9626C22.6006 27.9626 27.9625 22.6006 27.9625 16Z" fill="#F7931A"/>
<path fill-rule="evenodd" clip-rule="evenodd" d="M21.2746 14.296C21.5123 12.7034 20.3011 11.8483 18.6438 11.2758L19.1814 9.12032L17.8688 8.79328L17.345 10.8925C17.0003 10.8067 16.6461 10.7248 16.2934 10.6451L16.8195 8.53248L15.5088 8.2048L14.9696 10.361L14.8148 10.325L14.8146 10.325C14.5831 10.2712 14.3552 10.2183 14.1322 10.1642L14.1341 10.1562L12.3229 9.70432L11.9744 11.1066L11.9761 11.107L11.9761 11.107C12.0415 11.122 12.9479 11.3307 12.9267 11.344C13.4579 11.4765 13.5558 11.8291 13.5398 12.1072L12.0656 18.0154C12.0013 18.177 11.8358 18.4186 11.464 18.327C11.4776 18.3459 10.6168 18.1176 10.5174 18.0912L10.5173 18.0912L10.5101 18.0893L9.85791 19.5907L10.5904 19.7735L11.5674 20.0173C11.7474 20.0623 11.9256 20.1088 12.1019 20.1549C12.2364 20.19 12.3698 20.2249 12.5021 20.2586L11.959 22.4397L13.271 22.7667L13.8086 20.6093C14.167 20.7062 14.5139 20.7962 14.8544 20.8797L14.319 23.0278L15.6317 23.3549L16.175 21.1779C18.4122 21.6022 20.0966 21.431 20.8054 19.4058C21.376 17.7757 20.776 16.8355 19.5981 16.2218C20.4566 16.0253 21.1011 15.4605 21.2746 14.296ZM18.2755 18.5005C17.9027 19.9963 15.5658 19.3797 14.4936 19.0968C14.3962 19.0711 14.3093 19.0481 14.2352 19.0298L14.9555 16.1402C15.0454 16.1626 15.1552 16.1872 15.2797 16.2151C16.3881 16.4635 18.6556 16.9717 18.2755 18.5005ZM15.501 14.8723C16.3933 15.1108 18.3418 15.6317 18.681 14.2726C19.0273 12.8812 17.1346 12.4618 16.2097 12.2569C16.1058 12.2339 16.0141 12.2136 15.9392 12.1949L15.2864 14.816C15.3479 14.8314 15.4201 14.8507 15.501 14.8723Z" fill="white"/>
</svg>

<svg fill="none" viewBox="0 0 32 32"><path fill="#F0B90B" fill-rule="evenodd" d="M32 16c0-8.828-7.172-16-16-16S0 7.172 0 16s7.172 16 16 16 16-7.172 16-16z" clip-rule="evenodd"/><path fill="#fff" fill-rule="evenodd" d="M16 2.79c7.289 0 13.21 5.921 13.21 13.21 0 7.289-5.921 13.21-13.21 13.21-7.289 0-13.21-5.921-13.21-13.21C2.79 8.711 8.711 2.79 16 2.79zm0 1.247C22.6 4.037 27.963 9.4 27.963 16c0 6.6-5.362 11.963-11.963 11.963C9.4 27.963 4.037 22.6 4.037 16 4.037 9.4 9.4 4.037 16 4.037z" clip-rule="evenodd"/><path fill="#F7931A" fill-rule="evenodd" d="M27.962 16c0-6.6-5.361-11.963-11.962-11.963C9.4 4.037 4.037 9.4 4.037 16 4.037 22.6 9.4 27.963 16 27.963c6.6 0 11.962-5.362 11.962-11.963z" clip-rule="evenodd"/><path fill="#fff" fill-rule="evenodd" d="M21.275 14.296c.237-1.593-.974-2.448-2.631-3.02l.537-2.156-1.312-.327-.524 2.1a50.068 50.068 0 00-1.052-.248l.527-2.113-1.311-.327-.54 2.156-.154-.036-.683-.16.002-.009-1.811-.452-.349 1.403h.002c.065.015.972.224.95.237.532.133.63.485.614.763l-1.474 5.908c-.065.162-.23.404-.602.312.014.019-.847-.21-.947-.236l-.007-.002-.652 1.502.732.182.977.244c.18.045.359.092.535.138l.4.104-.543 2.18 1.312.328.538-2.158c.358.097.705.187 1.045.27l-.535 2.149 1.313.327.543-2.177c2.237.424 3.922.253 4.63-1.772.571-1.63-.029-2.57-1.207-3.184.859-.197 1.503-.762 1.677-1.926zm-3 4.204c-.372 1.496-2.71.88-3.781.597a13.686 13.686 0 00-.259-.067l.72-2.89c.09.023.2.047.325.075 1.108.248 3.376.757 2.996 2.285zm-2.774-3.628c.892.239 2.84.76 3.18-.6.346-1.39-1.546-1.81-2.471-2.015a11.152 11.152 0 01-.27-.062l-.654 2.621c.062.015.134.035.215.056z" clip-rule="evenodd"/></svg>
